X:1
T:Title
%%score ( 1 2 3 ) { 4 | 5 }
L:1/8
Q:1/4=97
M:4/4
K:Ab
V:1 treble nm="Grand Piano, Soprano"
V:2 treble 
V:3 treble 
V:4 bass nm="Choir Pad, The Final Judgment Day"
V:5 bass 
V:1
 [A,C]>[B,D] [CE]>[CE] [CE]>[CE] [CE]>[CE] | [CE]>[CE] [DF]>[FA] [FA]>[DF] [CE]2 | %2
w: By~Thomas~Jesse~Laney * * * * * * *||
 A>c c2- [Fc-]2 [Ec]>[FA] | .[FB]2 z2 z4 | [A,C]>[B,D] [CE]>[CE] [CE]>[CE] [CE]>[CE] | %5
w: |||
 [CE]>[CE] [DF]>[FA] [FA]>[DF] [CE]2 | A>c c2- [Fc-]2 [Ec]>[FA] | .[FB]2 z2 z4 | %8
w: |||
 c>c e2- [Ae-]2 [Ae]>[Af] | z2 z A- A3- A/ z/ | z2 A6 | z2 B6 | c>c e2- [Ae-]2 [Ae]>[Af] | %13
w: |||||
 [Ae]>[Ac] [FB]F F>F FF | A>B c2- [Fc-]2 [Ec]>[EA] | .[EB]2 A6 | z8 |] %17
w: ||||
V:2
 x8 | x8 | z2 E2 z4 | z (3:2:2A/[EB] [EA]6 | x8 | x8 | z2 E2 z4 | z (3:2:2A/[EB] [EA]6 | z2 A2 z4 | %9
 [Ae]>[Ac] [EB]F F>F FF | A>A E2 F2 F>[Fc] | [Fc]>[FA] GG GG G2 | z2 A2 z4 | z2 z A- A3- A/ z/ | %14
 z2 E2 z4 | z (3:2:2A/[EB] z z/ E/ F(3:2:2E/F E2- | E6 z2 |] %17
V:3
 x8 | x8 | x8 | x8 | x8 | x8 | x8 | x8 | x8 | x8 | x8 | x8 | x8 | x8 | x8 | z2 E2 z4 | x8 |] %17
V:4
 E,>E, A,>A, A,>A, A,>A, | A,>A, A,>D D>A, A,2 | z2 A,2 A,2 A,>A, | D(3:2:2C/D C6 | %4
 E,>E, A,>A, A,>A, A,>A, | A,>A, A,>D D>A, A,2 | z2 A,2 A,2 A,>[K:treble]A, | D(3:2:2C/D C6 | %8
 z2 C2 C2 C>D | C>E DD D>D DD | z2 C2 C2 C>A, | A,>C EE EE E2 | z2 C2 C2 C>C | C>C DD D>D DD | %14
 z2[K:bass] A,2 A,2 A,>A, | D[K:treble](3:2:2C/D C>C D(3:2:2C/D C2- | C6 z2 |] %17
V:5
 A,,>A,, A,,>A,, A,,>A,, A,,>A,, | A,,>A,, D,>D, D,>D, A,,2 | z4 F,2 C,>C, | (3:2:2E,2 E, A,,6 | %4
 A,,>A,, A,,>A,, A,,>A,, A,,>A,, | A,,>A,, D,>D, D,>D, A,,2 | z4 F,2 C,>C, | (3:2:2E,2 E, A,,6 | %8
 z2 A,2 A,2 A,>A, | A,>A, D,D, D,>D, D,D, | z2 A,2 F,2 F,>F, | F,>F, E,E, E,E, E,2 | %12
 z2 A,2 A,2 A,>A, | A,>A, D,D, D,>D, D,D, | z4 F,2 C,>C, | (3:2:2E,2 E, [A,,A,]6 | z8 |] %17

